X:791
T:Peter Reid
R:Strathspey
B:The Athole Collection
M:C
L:1/8
K:D
f|d>BA>F D<d A>F|d>BA>F B2 B>c|d<f A>F B>AF>E|G>E G/F/E/D/ E2E:|
e|d/e/f/g/ a<f dg|f>d f/g/a/f/ g2 g>b|d/e/f/g/ a<f b>af>d|g>e g/f/e/d/ e2
e>f|
d/e/f/g/ a<f dg|f>d f/g/a/f/ g2 g>b|(3agf (3gfe (3fed (3edc|
d>B B/A/G/F/ Eece||
